src/extras-openmoji/brand/F000.svg

<svg id="emoji" viewBox="0 0 72 72" xmlns="http://www.w3.org/2000/svg">
  <g id="grid">
    <path fill="#B3B3B3" d="M68 4V68H4V4H68ZM72 0H0V72H72V0Z"/>
    <path fill="none" stroke="#00A5FF" stroke-miterlimit="10" stroke-width="0.1" d="M12.923 10.9583H59.0769C59.5869 10.9583 60.0761 11.1609 60.4367 11.5216C60.7974 11.8822 61 12.3714 61 12.8814V59.0352C61 59.5452 60.7974 60.0344 60.4367 60.395C60.0761 60.7557 59.5869 60.9583 59.0769 60.9583H12.9231C12.4131 60.9583 11.9239 60.7557 11.5633 60.395C11.2026 60.0344 11 59.5452 11 59.0352V12.8813C11 12.3713 11.2026 11.8822 11.5632 11.5215C11.9239 11.1609 12.413 10.9583 12.923 10.9583V10.9583Z"/>
    <path fill="none" stroke="#00A5FF" stroke-miterlimit="10" stroke-width="0.1" d="M53.7463 4H18.2537C17.009 4 16 5.00902 16 6.2537V65.7463C16 66.991 17.009 68 18.2537 68H53.7463C54.991 68 56 66.991 56 65.7463V6.2537C56 5.00902 54.991 4 53.7463 4Z"/>
    <path fill="none" stroke="#00A5FF" stroke-miterlimit="10" stroke-width="0.1" d="M68 53.7463V18.2537C68 17.009 66.991 16 65.7463 16L6.2537 16C5.00902 16 4 17.009 4 18.2537V53.7463C4 54.991 5.00902 56 6.2537 56L65.7463 56C66.991 56 68 54.991 68 53.7463Z"/>
    <path fill="none" stroke="#00A5FF" stroke-miterlimit="10" stroke-width="0.1" d="M36 65C52.0163 65 65 52.0163 65 36C65 19.9837 52.0163 7 36 7C19.9837 7 7 19.9837 7 36C7 52.0163 19.9837 65 36 65Z"/>
  </g>
  <g id="color">
    <path fill="#61b2e4" fill-rule="evenodd" d="M34 16.1628L15 19.2558V34H34V16.1628ZM15 38V52.7442L34 55.8372V38H15ZM38 56.4884L60 60.0698V38H38V56.4884ZM60 34H38V15.5116L60 11.9302V34Z" clip-rule="evenodd"/>
  </g>
  <g id="line">
    <path fill="#000" d="M34 16.1628H35C35 15.8695 34.8713 15.591 34.6478 15.401C34.4244 15.211 34.1288 15.1287 33.8393 15.1758L34 16.1628ZM15 19.2558L14.8393 18.2688C14.3554 18.3476 14 18.7655 14 19.2558H15ZM15 34H14C14 34.5523 14.4477 35 15 35V34ZM34 34V35C34.5523 35 35 34.5523 35 34H34ZM15 38V37C14.4477 37 14 37.4477 14 38H15ZM15 52.7442H14C14 53.2344 14.3554 53.6524 14.8393 53.7312L15 52.7442ZM34 55.8372L33.8393 56.8242C34.1288 56.8713 34.4244 56.789 34.6478 56.599C34.8713 56.409 35 56.1305 35 55.8372H34ZM34 38H35C35 37.4477 34.5523 37 34 37V38ZM38 56.4884H37C37 56.9786 37.3554 57.3966 37.8393 57.4754L38 56.4884ZM60 60.0698L59.8393 61.0568C60.1288 61.1039 60.4244 61.0216 60.6478 60.8316C60.8712 60.6416 61 60.3631 61 60.0698H60ZM60 38H61C61 37.4477 60.5523 37 60 37V38ZM38 38V37C37.4477 37 37 37.4477 37 38H38ZM60 34V35C60.5523 35 61 34.5523 61 34H60ZM38 34H37C37 34.5523 37.4477 35 38 35V34ZM38 15.5116L37.8393 14.5246C37.3554 14.6034 37 15.0214 37 15.5116H38ZM60 11.9302H61C61 11.6369 60.8712 11.3584 60.6478 11.1684C60.4244 10.9784 60.1288 10.8961 59.8393 10.9432L60 11.9302ZM33.8393 15.1758L14.8393 18.2688L15.1607 20.2428L34.1607 17.1498L33.8393 15.1758ZM14 19.2558V34H16V19.2558H14ZM34 33H15V35H34V33ZM33 16.1628V34H35V16.1628H33ZM14 38V52.7442H16V38H14ZM14.8393 53.7312L33.8393 56.8242L34.1607 54.8502L15.1607 51.7572L14.8393 53.7312ZM33 38V55.8372H35V38H33ZM15 39H34V37H15V39ZM37.8393 57.4754L59.8393 61.0568L60.1607 59.0828L38.1607 55.5014L37.8393 57.4754ZM61 60.0698V38H59V60.0698H61ZM38 39H60V37H38V39ZM39 56.4884V38H37V56.4884H39ZM60 33H38V35H60V33ZM39 34V15.5116H37V34H39ZM59.8393 10.9432L37.8393 14.5246L38.1607 16.4986L60.1607 12.9172L59.8393 10.9432ZM61 34V11.9302H59V34H61Z"/>
  </g>
</svg>

<svg viewBox="0 0 72 72" xmlns="http://www.w3.org/2000/svg"><path fill="#B3B3B3" d="M68 4v64H4V4h64zm4-4H0v72h72V0z"/><path fill="none" stroke="#00A5FF" stroke-miterlimit="10" stroke-width=".1" d="M12.923 10.958h46.154A1.923 1.923 0 0161 12.881v46.154a1.923 1.923 0 01-1.923 1.923H12.923A1.923 1.923 0 0111 59.035V12.881a1.923 1.923 0 011.923-1.923v0z"/><path fill="none" stroke="#00A5FF" stroke-miterlimit="10" stroke-width=".1" d="M53.746 4H18.254A2.254 2.254 0 0016 6.254v59.492A2.254 2.254 0 0018.254 68h35.492A2.254 2.254 0 0056 65.746V6.254A2.254 2.254 0 0053.746 4z"/><path fill="none" stroke="#00A5FF" stroke-miterlimit="10" stroke-width=".1" d="M68 53.746V18.254A2.254 2.254 0 0065.746 16H6.254A2.254 2.254 0 004 18.254v35.492A2.254 2.254 0 006.254 56h59.492A2.254 2.254 0 0068 53.746z"/><path fill="none" stroke="#00A5FF" stroke-miterlimit="10" stroke-width=".1" d="M36 65c16.016 0 29-12.984 29-29S52.016 7 36 7 7 19.984 7 36s12.984 29 29 29z"/><path d="M34 16.163h1a1 1 0 00-1.16-.987l.16.987zm-19 3.093l-.16-.987a1 1 0 00-.84.987h1zM15 34h-1a1 1 0 001 1v-1zm19 0v1a1 1 0 001-1h-1zm-19 4v-1a1 1 0 00-1 1h1zm0 14.744h-1a1 1 0 00.84.987l.16-.987zm19 3.093l-.16.987a1 1 0 001.16-.987h-1zM34 38h1a1 1 0 00-1-1v1zm4 18.488h-1a1 1 0 00.84.987l.16-.987zm22 3.582l-.16.987A1 1 0 0061 60.07h-1zM60 38h1a1 1 0 00-1-1v1zm-22 0v-1a1 1 0 00-1 1h1zm22-4v1a1 1 0 001-1h-1zm-22 0h-1a1 1 0 001 1v-1zm0-18.488l-.16-.987a1 1 0 00-.84.987h1zm22-3.582h1a1 1 0 00-1.16-.987l.16.987zm-26.16 3.246l-19 3.093.32 1.974 19-3.093-.32-1.974zM14 19.256V34h2V19.256h-2zM34 33H15v2h19v-2zm-1-16.837V34h2V16.163h-2zM14 38v14.744h2V38h-2zm.84 15.731l19 3.093.32-1.974-19-3.093-.32 1.974zM33 38v17.837h2V38h-2zm-18 1h19v-2H15v2zm22.84 18.475l22 3.582.32-1.974-22-3.582-.32 1.974zM61 60.07V38h-2v22.07h2zM38 39h22v-2H38v2zm1 17.488V38h-2v18.488h2zM60 33H38v2h22v-2zm-21 1V15.512h-2V34h2zm20.84-23.057l-22 3.582.32 1.974 22-3.582-.32-1.974zM61 34V11.93h-2V34h2z" stroke-linecap="round" stroke-miterlimit="10" stroke-width="6" stroke="#fff" fill="none" stroke-linejoin="round"/><path fill="#61b2e4" fill-rule="evenodd" d="M34 16.163l-19 3.093V34h19V16.163zM15 38v14.744l19 3.093V38H15zm23 18.488l22 3.582V38H38v18.488zM60 34H38V15.512l22-3.582V34z" clip-rule="evenodd"/><path d="M34 16.163h1a1 1 0 00-1.16-.987l.16.987zm-19 3.093l-.16-.987a1 1 0 00-.84.987h1zM15 34h-1a1 1 0 001 1v-1zm19 0v1a1 1 0 001-1h-1zm-19 4v-1a1 1 0 00-1 1h1zm0 14.744h-1a1 1 0 00.84.987l.16-.987zm19 3.093l-.16.987a1 1 0 001.16-.987h-1zM34 38h1a1 1 0 00-1-1v1zm4 18.488h-1a1 1 0 00.84.987l.16-.987zm22 3.582l-.16.987A1 1 0 0061 60.07h-1zM60 38h1a1 1 0 00-1-1v1zm-22 0v-1a1 1 0 00-1 1h1zm22-4v1a1 1 0 001-1h-1zm-22 0h-1a1 1 0 001 1v-1zm0-18.488l-.16-.987a1 1 0 00-.84.987h1zm22-3.582h1a1 1 0 00-1.16-.987l.16.987zm-26.16 3.246l-19 3.093.32 1.974 19-3.093-.32-1.974zM14 19.256V34h2V19.256h-2zM34 33H15v2h19v-2zm-1-16.837V34h2V16.163h-2zM14 38v14.744h2V38h-2zm.84 15.731l19 3.093.32-1.974-19-3.093-.32 1.974zM33 38v17.837h2V38h-2zm-18 1h19v-2H15v2zm22.84 18.475l22 3.582.32-1.974-22-3.582-.32 1.974zM61 60.07V38h-2v22.07h2zM38 39h22v-2H38v2zm1 17.488V38h-2v18.488h2zM60 33H38v2h22v-2zm-21 1V15.512h-2V34h2zm20.84-23.057l-22 3.582.32 1.974 22-3.582-.32-1.974zM61 34V11.93h-2V34h2z"/></svg>
